!!!Melodie: Eigene
!!!Typ: Lied
**kern	**silbe	**silbe	**silbe	**silbe	**silbe	**silbe	**silbe	**silbe	**silbe	**silbe	**silbe	**silbe	**silbe	**silbe	**silbe	**silbe	**silbe	**silbe	**silbe	**silbe
*clefG2	*lang:DE	*lang:DE	*lang:DE	*lang:DE	*lang:DE	*lang:DE	*lang:DE	*lang:DE	*lang:DE	*lang:DE	*lang:DE	*lang:DE	*lang:DE	*lang:DE	*lang:DE	*lang:DE	*lang:DE	*lang:DE	*lang:DE	*lang:DE
*k[f#,c#]	*	*	*	*	*	*	*	*	*	*	*	*	*	*	*	*	*	*	*	*
*M4/4	*	*	*	*	*	*	*	*	*	*	*	*	*	*	*	*	*	*	*	*
4a	Eins	al#	See#	Lass,	Wie,	Da	al#	lass	Al#	Gib	Nichts	Je#	Nun	du	Ja,	du	Vol#	weil	D’rum	prüf’
4a	ist	#les	#le,	was	dies	sie	#so	mich	#ler	nur,	kann	#su,	so	bist	was	bist	#les	auf	auch,	er#
=	=	=	=	=	=	=	=	=	=	=	=	=	=	=	=	=	=	=	=	=
4b	not!	an#	willst	ir#	Ei#	sich	ist	treu#	Weis#	dass	ich	lass	gib,	ja,	soll	ein#	‘Gnü#	ei#	Je#	#fah#
4cc#	Ach	#d're,	du	#disch	#ne	zu	auch	#lich	#heit	sich	vor	es	dass	den	ich	#mal	#gen,	#ne	#su,	#re,
4dd	Herr,	wie’s	die#	ist,	zu	Je#	mein	an	höch#	auch	Gott	mir	mei#	ich	mehr	ein#	Fried’	fri#	du	wie
4dd	dies	auch	#ses	da#	ge#	#su	Ver#	dir	#ste	mein	ja	ge#	#ne	er#	ver#	#ge#	und	#sche	al#	ich’s
=	=	=	=	=	=	=	=	=	=	=	=	=	=	=	=	=	=	=	=	=
4cc#	ei#	schei#	fin#	#hin#	#nie#	Fü#	#lan#	han#	Fül#	Wil#	brin#	#lin#	See#	#wäh#	#lan#	#gan#	Freu#	Wei#	#lei#	mei#
4cc#	#ne	#ne,	#den,	#ten,	#ßen,	#ßen	#gen,	#gen,	#le	#le	#gen	#gen	#le	#le,	#gen?	#gen	#de	#de	#ne	#ne,
4b	leh#	ist	such’s	schwing	sich	vol#	lieb#	schen#	in	fein	als	durch	auch	mir	mich	in	mei#	mein	sollst	til#
4b	#re	ja	bei	dich	Ma#	#ler	#ster	#ke	dir	in	nur	dein	nach	zur	um#	das	#ne	Hirt’,	mein	#ge
=	=	=	=	=	=	=	=	=	=	=	=	=	=	=	=	=	=	=	=	=
4a	mich	nur	kei#	ü#	#ri#	An#	Je#	dich	ja	sol#	dich,	heil#	dei#	Hei#	#strömt	Heil#	See#	Je#	Ein	al#
4f#	er#	ein	#ner	#ber	#a	#dacht	#su,	zu	ver#	#che	mein	#'ges,	#nem	#li#	die	#'ge	#le	#sus,	und	#len
4g	#ken#	schwe#	Kre#	die	dort	nie#	nur	ei#	#bor#	Schran#	höch#	teu#	Bild	#gung	Gna#	durch	jetzt	mich	Al#	Heu#
4e	#nen	#res	#a#	Na#	be#	#der#	nach	#gen	#gen	#ken	#stes	#res	er#	ge#	#den#	dein	er#	ge#	#les	#chel#
=	=	=	=	=	=	=	=	=	=	=	=	=	=	=	=	=	=	=	=	=
2d	doch:	Joch,	#tur;	#tur,	#fliß,	#ließ:	dir,	mir.	liegt.	fügt,	Gut;	Blut.	#wacht;	#macht.	#flut;	Blut;	#götzt,	#setzt.	sein;	#schein.
=:|	=	=	=	=	=	=	=	=	=	=	=	=	=	=	=	=	=	=	=	=
*M6/4	*	*	*	*	*	*	*	*	*	*	*	*	*	*	*	*	*	*	*	*
4d	.	dar#	.	wo	.	ihr	.	Ob	.	Wo#	.	die	.	was	.	da	.	Nichts	.	Sieh,
4f#	.	#un#	.	Gott	.	Her#	.	viel	.	#rin#	.	höch#	.	die#	.	hast	.	Sü#	.	ob
4f#	.	#ter	.	und	.	#ze	.	auch	.	#ne	.	#ste	.	#net	.	du	.	#ßes	.	ich
4f#	.	das	.	die	.	ent#	.	um#	.	die	.	Ge#	.	zum	.	die	.	kann	.	auf
=	=	=	=	=	=	=	=	=	=	=	=	=	=	=	=	=	=	=	=	=
4e	.	Her#	.	Mensch#	.	#brann#	.	#kehr#	.	De#	.	#rech#	.	gött#	.	ew#	.	al#	.	bö#
4e	.	#ze	.	#heit	.	#te	.	#ten	.	#mut	.	#tig#	.	#li#	.	#'ge	.	#so	.	#sen,
4e	.	sich	.	in	.	dies	.	zum	.	und	.	#keit	.	#chen	.	Er#	.	mein	.	be#
4g	.	na#	.	Ei#	.	ein#	.	grö#	.	Ein#	.	ist	.	Wan#	.	#lö#	.	Her#	.	#trüg#
4g	.	#get	.	#nem	.	#zig	.	#ßes#	.	#falt	.	mir	.	#del	.	#sung	.	#ze	.	#li#
4g	.	und	.	ver#	.	zu	.	#ten	.	re#	.	er#	.	und	.	er#	.	er#	.	#chen
=	=	=	=	=	=	=	=	=	=	=	=	=	=	=	=	=	=	=	=	=
4f#	.	pla#	.	#ei#	.	hö#	.	Hau#	.	#gie#	.	#wor#	.	Le#	.	#fun#	.	#la#	.	Ste#
4f#	.	#get,	.	#net,	.	#ren,	.	#fen,	.	#ret	.	#ben,	.	#ben,	.	#den,	.	#ben,	.	#ge,
4f#	.	und	.	wo	.	was	.	so	.	und	.	da	.	ist	.	dass	.	als	.	und
4b	.	den#	.	al#	.	Je#	.	will	.	mich	.	du	.	in	.	ich	.	wenn	.	lei#
4b	.	#noch	.	#le	.	#sus,	.	ich	.	zu	.	bist	.	dir,	.	nun	.	ich	.	#te
4b	.	kein	.	voll#	.	ihr	.	dir	.	der	.	am	.	mein	.	der	.	nur	.	mich,
=	=	=	=	=	=	=	=	=	=	=	=	=	=	=	=	=	=	=	=	=
4.a	.	wah#	.	#komm#	.	Hei#	.	den#	.	Weis#	.	Stam#	.	Hei#	.	höl#	.	Je#	.	Höch#
8g	.	#res	.	#e#	.	#land,	.	#noch	.	#heit,	.	#me	.	#land,	.	#li#	.	#su,	.	#ster,
4f#	.	Ver#	.	#ne	.	sie	.	in	.	die	.	des	.	mir	.	#schen	.	dich	.	auf
4g	.	#gnü#	.	Fül#	.	woll#	.	Lie#	.	himm#	.	Kreu#	.	al#	.	Herr#	.	im#	.	e#
4f#	.	#gen	.	#le	.	#te	.	#be	.	#lisch	.	#es	.	#les	.	#schaft	.	#mer	.	#wi#
4e	.	er#	.	er#	.	be#	.	nach#	.	ist,	.	ge#	.	ge#	.	ent#	.	soll	.	#gem
=	=	=	=	=	=	=	=	=	=	=	=	=	=	=	=	=	=	=	=	=
4d	.	#ja#	.	#schei#	.	#leh#	.	#lau#	.	füh#	.	#stor#	.	#ge#	.	#bun#	.	ha#	.	We#
4d	.	#get.	.	#net;	.	#ren,	.	#fen;	.	#ret.	.	#ben;	.	#ben;	.	#den;	.	#ben;	.	#ge,
4d	.	Er#	.	da,	.	ihr	.	denn	.	Ach,	.	die	.	ent#	.	dein	.	nichts,	.	gib,
4f#	.	#lang'	.	da	.	Al#	.	dein	.	wenn	.	Klei#	.	#rei#	.	Ein#	.	nichts	.	dass
4f#	.	ich	.	ist	.	#les	.	Wort,	.	ich	.	#der	.	#ße	.	#gang	.	ist,	.	ich
4f#	.	dies	.	das	.	war	.	o	.	nur	.	des	.	mich	.	die	.	das,	.	nichts
=	=	=	=	=	=	=	=	=	=	=	=	=	=	=	=	=	=	=	=	=
4e	.	ei#	.	bes#	.	gänz#	.	Je#	.	Je#	.	Heils	.	al#	.	völ#	.	al#	.	ach#
4e	.	#ne,	.	#te	.	#lich	.	#su,	.	#sus	.	ich	.	#ler	.	#li#	.	#so	.	#te,
4e	.	das	.	not#	.	in	.	ist	.	recht	.	da	.	ver#	.	#ge	.	mich	.	nicht
4g	.	al#	.	#wen#	.	Je#	.	Le#	.	ken#	.	ha#	.	#gäng#	.	Frei#	.	in#	.	Le#
4g	.	#les	.	#di#	.	#sus	.	#ben	.	#ne	.	#be	.	#li#	.	#heit	.	#nig	.	#ben
4g	.	er#	.	#ge	.	ver#	.	und	.	und	.	er#	.	#chen	.	mir	.	er#	.	noch
=	=	=	=	=	=	=	=	=	=	=	=	=	=	=	=	=	=	=	=	=
2f#	.	#setzt,	.	Teil,	.	#senkt,	.	Geist,	.	weiß,	.	#langt,	.	Lust,	.	bringt,	.	#quickt,	.	Tod,
4f#	.	so	.	mein	.	und	.	was	.	so	.	wo#	.	dein	.	im	.	als	.	und
4b	.	werd	.	Ein	.	wur#	.	ist	.	hab’	.	#rin#	.	Le#	.	kind#	.	wenn	.	Je#
4b	.	ich	.	und	.	#de	.	wohl,	.	ich	.	#ne	.	#ben	.	#li#	.	ich	.	#sus
4b	.	mit	.	mein	.	ihr	.	das	.	der	.	mein	.	sei,	.	#chen	.	dich,	.	ge#
=	=	=	=	=	=	=	=	=	=	=	=	=	=	=	=	=	=	=	=	=
4.a	.	ei#	.	Al#	.	Al#	.	man	.	Weis#	.	Glau#	.	Je#	.	Gei#	.	Je#	.	#win#
8g	.	#nem	.	#les	.	#les	.	nicht	.	#heit	.	#be	.	#su,	.	#ste	.	#su,	.	#ne:
4f#	.	in	.	und	.	in	.	in	.	voll#	.	in	.	mir	.	das	.	im	.	dies
4g	.	al#	.	see#	.	Ei#	.	Je#	.	#komm#	.	E#	.	ein#	.	Ab#	.	Glau#	.	Ei#
4f#	.	#lem	.	#lig#	.	#nem	.	#su	.	#e#	.	#wig#	.	#zig	.	#ba	.	#ben	.	#ne
4e	.	er#	.	#stes	.	ge#	.	ge#	.	#nen	.	#keit	.	be#	.	nun	.	er#	.	ist
=	=	=	=	=	=	=	=	=	=	=	=	=	=	=	=	=	=	=	=	=
2d	.	#götzt.	.	Heil.	.	#schenkt:	.	#ießt?	.	Preis.	.	prangt.	.	#wusst.	.	klingt.	.	#blickt.	.	not.
==	==	==	==	==	==	==	==	==	==	==	==	==	==	==	==	==	==	==	==	==
*-	*-	*-	*-	*-	*-	*-	*-	*-	*-	*-	*-	*-	*-	*-	*-	*-	*-	*-	*-	*-
